X:139
T:Miss Cochrine's Rant. Ru2.139
%%VWML:RutherfordVol2-2249-p70-0
F:http://www.vwml.org/record/RutherfordVol2/2249/p70
Z:vmp.Steve Mansfield 2015 www.village-music-project.org.uk
M:6/8
L:1/8
R:Rant
W:The first Cou. Lead down two Cou. & cast up into
W:The 2d Cou. Place .| The 2d Cou. do the same :|
W:The First Casts off two Cou. the 2d & 3d Cou.
W:Follow them Lead up to the Top .|. Foot it hand
W:Right & Left into the 2d Cou.s Place :|
Q:3/8=90
N:NB Mss shows C| as time signature but is barred as 6/8
K:D
|:"NB"A | F>GA A>B=c | BGB AFA | BEE EFG | AFD D2A |
F>GA AB=c | BGB AFA | (B/c/dB) (c/d/ec) | d3 D2 :|
|: e | fdf fdf | ece ece | fdf fdf |
geg geg | fdf fdf | ece ecA | (B/c/dB) (c/d/ec) | d3 D2 :|
T:Lord Aberdoner's Reel. Ru2.140
B:RUTHERFORD Complete Collection of 200 Country Dances Vol.2; 1759.
Z:vmp.Steve Mansfield 2015 www.village-music-project.org.uk
M:C
L:1/8
R:Reel
W:First Man turn his Partner with his right
W:Hand & cast off one Cou. .| Turn Left
W:Hands the Man falls between the 3d Cou.
W:& the Wo. between the 2d Cou. :| Foot it
W:Six at Top & Bottom .|. Foot it Sides
W:Foot it Corners & turn .||. Lead outsides
W:& turn :|
Q:1/2=60
K:F
|:c | AFcF AFFc | AGAc dGGc | cAcA f>gag | fdcA F/F/F F :|
|: e | fdcA f>gag | fdcA gdde | fdcA f>gag | fdcA F/F/F F :|
